icons/modern/blue-book.svg

<svg width="32" height="32" viewBox="0 0 32 32" fill="none" xmlns="http://www.w3.org/2000/svg">
<g filter="url(#filter0_i_18_20823)">
<path d="M6.625 2H25C26.1046 2 27 2.89543 27 4V26H6.625V2Z" fill="url(#paint0_linear_18_20823)"/>
<path d="M6.625 2H25C26.1046 2 27 2.89543 27 4V26H6.625V2Z" fill="url(#paint1_linear_18_20823)"/>
</g>
<path d="M5.5 26.5H27V29H26.5L26 29.5H5.5V26.5Z" fill="url(#paint2_linear_18_20823)"/>
<path d="M5.5 26.5H27V29H26.5L26 29.5H5.5V26.5Z" fill="url(#paint3_linear_18_20823)"/>
<path d="M6.5 2C5.67157 2 5 2.67157 5 3.5V28H6C6 27.4477 6.44772 27 7 27H8V2H6.5Z" fill="url(#paint4_linear_18_20823)"/>
<g filter="url(#filter1_i_18_20823)">
<path d="M6.5 26C5.67157 26 5 26.6716 5 27.5V28.5C5 29.3284 5.67157 30 6.5 30H25.9077C26.5608 30 27 29.6655 27 29H7C6.44772 29 6 28.5523 6 28C6 27.4477 6.44772 27 7 27H27V26H6.5Z" fill="url(#paint5_linear_18_20823)"/>
</g>
<defs>
<filter id="filter0_i_18_20823" x="6.625" y="2" width="20.375" height="24.1" filterUnits="userSpaceOnUse" color-interpolation-filters="sRGB">
<feFlood flood-opacity="0" result="BackgroundImageFix"/>
<feBlend mode="normal" in="SourceGraphic" in2="BackgroundImageFix" result="shape"/>
<feColorMatrix in="SourceAlpha" type="matrix" values="0 0 0 0 0 0 0 0 0 0 0 0 0 0 0 0 0 0 127 0" result="hardAlpha"/>
<feOffset dy="0.1"/>
<feGaussianBlur stdDeviation="0.25"/>
<feComposite in2="hardAlpha" operator="arithmetic" k2="-1" k3="1"/>
<feColorMatrix type="matrix" values="0 0 0 0 0.32549 0 0 0 0 0.807843 0 0 0 0 0.933333 0 0 0 1 0"/>
<feBlend mode="normal" in2="shape" result="effect1_innerShadow_18_20823"/>
</filter>
<filter id="filter1_i_18_20823" x="5" y="26" width="22" height="4.1" filterUnits="userSpaceOnUse" color-interpolation-filters="sRGB">
<feFlood flood-opacity="0" result="BackgroundImageFix"/>
<feBlend mode="normal" in="SourceGraphic" in2="BackgroundImageFix" result="shape"/>
<feColorMatrix in="SourceAlpha" type="matrix" values="0 0 0 0 0 0 0 0 0 0 0 0 0 0 0 0 0 0 127 0" result="hardAlpha"/>
<feOffset dy="0.1"/>
<feGaussianBlur stdDeviation="0.15"/>
<feComposite in2="hardAlpha" operator="arithmetic" k2="-1" k3="1"/>
<feColorMatrix type="matrix" values="0 0 0 0 0.168627 0 0 0 0 0.388235 0 0 0 0 0.74902 0 0 0 1 0"/>
<feBlend mode="normal" in2="shape" result="effect1_innerShadow_18_20823"/>
</filter>
<linearGradient id="paint0_linear_18_20823" x1="17.5" y1="2" x2="17.5" y2="26" gradientUnits="userSpaceOnUse">
<stop stop-color="#56D1F3"/>
<stop offset="1" stop-color="#39ADF1"/>
</linearGradient>
<linearGradient id="paint1_linear_18_20823" x1="27.1562" y1="5.53125" x2="25.1875" y2="5.8125" gradientUnits="userSpaceOnUse">
<stop offset="0.0135725" stop-color="#7FECFF"/>
<stop offset="1" stop-color="#60DEFF" stop-opacity="0"/>
</linearGradient>
<linearGradient id="paint2_linear_18_20823" x1="6.7215" y1="28.4155" x2="26.819" y2="28.4155" gradientUnits="userSpaceOnUse">
<stop stop-color="#D5BCEB"/>
<stop offset="1" stop-color="#DCCCED"/>
<stop offset="1" stop-color="#E3D3F2"/>
</linearGradient>
<linearGradient id="paint3_linear_18_20823" x1="16.25" y1="26.738" x2="16.25" y2="28.1574" gradientUnits="userSpaceOnUse">
<stop stop-color="#9F84AE"/>
<stop offset="1" stop-color="#C5B1D6" stop-opacity="0"/>
</linearGradient>
<linearGradient id="paint4_linear_18_20823" x1="5.20532" y1="16.7376" x2="7.5625" y2="16.75" gradientUnits="userSpaceOnUse">
<stop stop-color="#44A3D2"/>
<stop offset="1" stop-color="#3C8FCC"/>
</linearGradient>
<linearGradient id="paint5_linear_18_20823" x1="6.43117" y1="28.9639" x2="27" y2="28.9316" gradientUnits="userSpaceOnUse">
<stop stop-color="#3769C5"/>
<stop offset="1" stop-color="#3666C3"/>
</linearGradient>
</defs>
</svg>

<svg width="32" height="32" fill="none" xmlns="http://www.w3.org/2000/svg"><g filter="url(#a)"><path d="M6.625 2H25a2 2 0 0 1 2 2v22H6.625V2Z" fill="url(#b)"/><path d="M6.625 2H25a2 2 0 0 1 2 2v22H6.625V2Z" fill="url(#c)"/></g><path d="M5.5 26.5H27V29h-.5l-.5.5H5.5v-3Z" fill="url(#d)"/><path d="M5.5 26.5H27V29h-.5l-.5.5H5.5v-3Z" fill="url(#e)"/><path d="M6.5 2A1.5 1.5 0 0 0 5 3.5V28h1a1 1 0 0 1 1-1h1V2H6.5Z" fill="url(#f)"/><g filter="url(#g)"><path d="M6.5 26A1.5 1.5 0 0 0 5 27.5v1A1.5 1.5 0 0 0 6.5 30h19.408C26.56 30 27 29.666 27 29H7a1 1 0 1 1 0-2h20v-1H6.5Z" fill="url(#h)"/></g><defs><linearGradient id="b" x1="17.5" y1="2" x2="17.5" y2="26" gradientUnits="userSpaceOnUse"><stop stop-color="#56D1F3"/><stop offset="1" stop-color="#39ADF1"/></linearGradient><linearGradient id="c" x1="27.156" y1="5.531" x2="25.188" y2="5.813" gradientUnits="userSpaceOnUse"><stop offset=".014" stop-color="#7FECFF"/><stop offset="1" stop-color="#60DEFF" stop-opacity="0"/></linearGradient><linearGradient id="d" x1="6.721" y1="28.416" x2="26.819" y2="28.416" gradientUnits="userSpaceOnUse"><stop stop-color="#D5BCEB"/><stop offset="1" stop-color="#DCCCED"/><stop offset="1" stop-color="#E3D3F2"/></linearGradient><linearGradient id="e" x1="16.25" y1="26.738" x2="16.25" y2="28.157" gradientUnits="userSpaceOnUse"><stop stop-color="#9F84AE"/><stop offset="1" stop-color="#C5B1D6" stop-opacity="0"/></linearGradient><linearGradient id="f" x1="5.205" y1="16.738" x2="7.563" y2="16.75" gradientUnits="userSpaceOnUse"><stop stop-color="#44A3D2"/><stop offset="1" stop-color="#3C8FCC"/></linearGradient><linearGradient id="h" x1="6.431" y1="28.964" x2="27" y2="28.932" gradientUnits="userSpaceOnUse"><stop stop-color="#3769C5"/><stop offset="1" stop-color="#3666C3"/></linearGradient><filter id="a" x="6.625" y="2" width="20.375" height="24.1" filterUnits="userSpaceOnUse" color-interpolation-filters="sRGB"><feFlood flood-opacity="0" result="BackgroundImageFix"/><feBlend in="SourceGraphic" in2="BackgroundImageFix" result="shape"/><feColorMatrix in="SourceAlpha" values="0 0 0 0 0 0 0 0 0 0 0 0 0 0 0 0 0 0 127 0" result="hardAlpha"/><feOffset dy=".1"/><feGaussianBlur stdDeviation=".25"/><feComposite in2="hardAlpha" operator="arithmetic" k2="-1" k3="1"/><feColorMatrix values="0 0 0 0 0.32549 0 0 0 0 0.807843 0 0 0 0 0.933333 0 0 0 1 0"/><feBlend in2="shape" result="effect1_innerShadow_18_20823"/></filter><filter id="g" x="5" y="26" width="22" height="4.1" filterUnits="userSpaceOnUse" color-interpolation-filters="sRGB"><feFlood flood-opacity="0" result="BackgroundImageFix"/><feBlend in="SourceGraphic" in2="BackgroundImageFix" result="shape"/><feColorMatrix in="SourceAlpha" values="0 0 0 0 0 0 0 0 0 0 0 0 0 0 0 0 0 0 127 0" result="hardAlpha"/><feOffset dy=".1"/><feGaussianBlur stdDeviation=".15"/><feComposite in2="hardAlpha" operator="arithmetic" k2="-1" k3="1"/><feColorMatrix values="0 0 0 0 0.168627 0 0 0 0 0.388235 0 0 0 0 0.74902 0 0 0 1 0"/><feBlend in2="shape" result="effect1_innerShadow_18_20823"/></filter></defs></svg>
